; generated by PrusaSlicer 2.1.0-beta2+ on 2019-09-04 at 12:30:51

; Created from John O Prusa 0.20 Normal MK3 settings profile on 1/15/2019

; external perimeters extrusion width = 0.45mm
; perimeters extrusion width = 0.45mm
; infill extrusion width = 0.45mm
; solid infill extrusion width = 0.45mm
; top infill extrusion width = 0.45mm
; first layer extrusion width = 0.45mm

; external perimeters extrusion width = 0.45mm
; perimeters extrusion width = 0.45mm
; infill extrusion width = 0.45mm
; solid infill extrusion width = 0.45mm
; top infill extrusion width = 0.45mm
; first layer extrusion width = 0.45mm

M107
;P2PP PRINTERPROFILE=cafebabefeedface
;P2PP SPLICEOFFSET=30
;P2PP MINSTARTSPLICE=100
;P2PP MINSPLICE=80
;P2PP MATERIAL_DEFAULT_0_0_0
;P2PP MATERIAL_PVA_PVA_0_0_0
;P2PP MATERIAL_PVA_PLA_0_0_0
;P2PP MATERIAL_PLA_PLA_0_0_0
;P2PP MATERIAL_PET_PET_0_0_0

; Following settings are optional (see description below)

;P2PP EXTRAENDFILAMENT=300
;P2PP PURGETOWERDELTA=100
;P2PP LINEARPING=350
;P2PP WIPEFEEDRATE=4000
;P2PP REPRAPCOMPATIBLE
;P2PP ENDPURGETOWER

; Following optional settings control the SIDE TRANSITIONING (see description below)
;P2PP BEDORIGINX=0
;P2PP BEDORIGINY=0
;P2PP BEDSIZEX=290
;P2PP BEDSIZEY=290
;P2PP SIDEWIPELOC=X-20
;P2PP SIDEWIPEMINY=140
;P2PP SIDEWIPEMAXY=160
;P2PP SIDEWIPECORRECTION=1.0

;P2PP BEFORESIDEWIPEGCODE ;--ENTER GCODE TO BE EXECUTED BEFORE SIDEWIPE (one coomand per line,can be multiple lines)
;P2PP AFTERSIDEWIPEGCODE ;--- ENTER GCODE TO BE EXECUTED AFTER SIDEWIPE (one coomand per line,can be multiple lines)


; Multi-temp start code - 10 Jan 2019
; Raise bed temp to profile requested bed temp
M140 S60 ; Raise bed temp to profile requested bed temp
M104 S214 T0 ; Raise hot-end temp to profile requested hot-end layer 1 temp
G28 ; home all axes
;G32 ; Autocalibrate bed
;G32 ; Autocalibrate bed a second time
G1 S2 Z20 F600 ; Move bed down 20
M190 S60 ; Wait for bed temp to rise
M109 S214 T0 ; Wait for hot-end temp to rise to profile requested hot-end layer 1 temp
;
G1 X0.0 Y0.0 Z1.0 F6000.0 ; prepare to prime
G92 E0 ; reset extrusion distance
G1 Z0.2 F600
G1 X60.0 E9.0  F1000.0 ; priming
G1 X125.0 E12.5  F1000.0 ; priming
G1 Z0.5 F600
G92 E0 ; reset extrusion distance
; end of start code

G21 ; set units to millimeters
G90 ; use absolute coordinates
M83 ; use relative distances for extrusion
T0
M900 K0.05
M572 D0 S0.05
G1 Z0.200 F9000.000
;LAYER 0

G1 Z0.200 F9000.000
G1 E-10.00000 F1800.00000
G1 Z0.450 F9000.000
G1 X243.000 Y140.000
G1 Z0.200
G1 E10.00000 F1800.00000
;-------------------------------------
; CP WIPE TOWER FIRST LAYER BRIM START
G1  X243.000 Y154.400 E0.8209 F2400
G1  X240.457 Y154.857  F7000
G1  Y139.543 E0.6402 F2100
G1  X179.543 E2.5466
G1  Y154.857 E0.6402
G1  X240.457 E2.5466
G1  X240.914 Y155.314  F7000
G1  Y139.086 E0.6785 F2100
G1  X179.086 E2.5849
G1  Y155.314 E0.6785
G1  X240.914 E2.5849
G1  X241.371 Y155.771  F7000
G1  Y138.629 E0.7167 F2100
G1  X178.629 E2.6231
G1  Y155.771 E0.7167
G1  X241.371 E2.6231
G1  X241.828 Y156.228  F7000
G1  Y138.172 E0.7549 F2100
G1  X178.172 E2.6613
G1  Y156.228 E0.7549
G1  X241.828 E2.6613
G1  X240.000 Y154.400  F7000
G1  X180.000
G1  X240.000
; CP WIPE TOWER FIRST LAYER BRIM END
;-----------------------------------

G1 E-0.80000 F1800.00000
G1 Z0.450 F9000.000
G1 X156.791 Y135.279
G1 Z0.200
G1 E0.80000 F1800.00000
M204 S200
G1 F2400
G1 X145.470 Y170.074 E1.13229
G1 X145.154 Y170.796 E0.02438
G1 X144.686 Y171.488 E0.02586
G1 X144.124 Y172.059 E0.02479
G1 X143.494 Y172.506 E0.02390
G1 X142.772 Y172.847 E0.02470
G1 X142.016 Y173.052 E0.02425
G1 X141.235 Y173.121 E0.02425
G1 X140.446 Y173.052 E0.02451
G1 X139.480 Y172.764 E0.03120
G1 X138.565 Y172.240 E0.03263
G1 X137.826 Y171.551 E0.03126
G1 X137.260 Y170.709 E0.03139
G1 X112.394 Y118.303 E1.79496
G1 X109.412 Y109.001 E0.30228
G1 X109.225 Y107.796 E0.03775
G1 X109.303 Y106.545 E0.03878
G1 X109.517 Y105.697 E0.02708
G1 X109.816 Y104.972 E0.02425
G1 X110.215 Y104.291 E0.02441
G1 X110.755 Y103.614 E0.02681
G1 X111.331 Y103.074 E0.02443
G1 X111.970 Y102.621 E0.02423
G1 X112.743 Y102.227 E0.02688
G1 X113.467 Y101.978 E0.02368
G1 X153.009 Y94.204 E1.24702
G1 X154.655 Y94.060 E0.05114
G1 X155.537 Y94.105 E0.02732
G1 X156.655 Y94.286 E0.03506
G1 X157.736 Y94.601 E0.03484
G1 X158.540 Y94.933 E0.02692
G1 X159.533 Y95.476 E0.03501
G1 X160.251 Y95.977 E0.02710
G1 X160.916 Y96.543 E0.02704
G1 X161.688 Y97.358 E0.03472
G1 X162.362 Y98.274 E0.03519
G1 X162.796 Y99.022 E0.02678
G1 X163.162 Y99.818 E0.02710
G1 X163.522 Y100.894 E0.03510
G1 X163.745 Y102.003 E0.03501
G1 X163.824 Y102.870 E0.02692
G1 X163.802 Y104.001 E0.03501
G1 X163.690 Y104.873 E0.02720
G1 X156.804 Y135.220 E0.96297
M204 S3000
G1 E-0.80000 F1800.00000
G1 Z0.450 F9000.000
G1 X157.606 Y106.812
G1 Z0.200
G1 E0.80000 F1800.00000
M204 S200
G1 F2400
G1 X157.280 Y107.063 E0.01272
G1 X156.774 Y107.370 E0.01833
G1 X156.401 Y107.544 E0.01272
G1 X156.015 Y107.684 E0.01272
G1 X155.444 Y107.824 E0.01820
G1 X155.032 Y107.879 E0.01284
G1 X154.628 Y107.896 E0.01251
G1 X154.225 Y107.879 E0.01251
G1 X153.817 Y107.825 E0.01272
G1 X153.246 Y107.685 E0.01820
G1 X152.856 Y107.544 E0.01284
G1 X152.483 Y107.370 E0.01273
G1 X151.977 Y107.063 E0.01833
G1 X151.651 Y106.812 E0.01272
G1 X151.353 Y106.539 E0.01251
G1 X151.080 Y106.241 E0.01251
G1 X150.834 Y105.921 E0.01251
G1 X150.613 Y105.574 E0.01272
G1 X150.351 Y105.043 E0.01833
G1 X150.208 Y104.650 E0.01293
G1 X150.068 Y104.079 E0.01820
G1 X150.013 Y103.668 E0.01284
G1 X149.996 Y103.264 E0.01251
G1 X150.013 Y102.860 E0.01251
G1 X150.067 Y102.452 E0.01272
G1 X150.207 Y101.881 E0.01820
G1 X150.348 Y101.491 E0.01284
G1 X150.522 Y101.118 E0.01272
G1 X150.827 Y100.615 E0.01820
G1 X151.079 Y100.286 E0.01284
G1 X151.353 Y99.988 E0.01251
G1 X151.651 Y99.715 E0.01251
G1 X151.971 Y99.469 E0.01251
G1 X152.318 Y99.248 E0.01272
G1 X152.849 Y98.986 E0.01833
G1 X153.235 Y98.845 E0.01272
G1 X153.626 Y98.741 E0.01251
G1 X154.030 Y98.669 E0.01272
G1 X154.617 Y98.631 E0.01820
G1 X155.032 Y98.649 E0.01284
G1 X155.440 Y98.702 E0.01272
G1 X156.011 Y98.842 E0.01820
G1 X156.408 Y98.986 E0.01305
G1 X156.935 Y99.246 E0.01821
G1 X157.285 Y99.469 E0.01284
G1 X157.606 Y99.715 E0.01251
G1 X157.904 Y99.988 E0.01251
G1 X158.182 Y100.291 E0.01272
G1 X158.530 Y100.765 E0.01820
G1 X158.738 Y101.124 E0.01284
G1 X158.909 Y101.491 E0.01251
G1 X159.047 Y101.871 E0.01251
G1 X159.153 Y102.268 E0.01272
G1 X159.243 Y102.853 E0.01833
G1 X159.261 Y103.264 E0.01272
G1 X159.243 Y103.674 E0.01272
G1 X159.153 Y104.260 E0.01833
G1 X159.047 Y104.657 E0.01272
G1 X158.909 Y105.036 E0.01251
G1 X158.738 Y105.403 E0.01251
G1 X158.532 Y105.759 E0.01272
G1 X158.185 Y106.233 E0.01820
G1 X157.904 Y106.539 E0.01284
G1 X157.651 Y106.772 E0.01066
M204 S3000
G1 X157.344 Y106.500 F9000.000
M204 S200
G1 F2400
G1 X157.050 Y106.726 E0.01148
G1 X156.582 Y107.010 E0.01695
G1 X156.245 Y107.167 E0.01148
G1 X155.897 Y107.294 E0.01148
G1 X155.368 Y107.424 E0.01683
G1 X154.997 Y107.473 E0.01160
G1 X154.628 Y107.489 E0.01141
G1 X154.260 Y107.473 E0.01141
G1 X153.892 Y107.424 E0.01148
G1 X153.364 Y107.295 E0.01683
G1 X153.012 Y107.167 E0.01160
G1 X152.675 Y107.010 E0.01148
G1 X152.207 Y106.726 E0.01695
G1 X151.913 Y106.500 E0.01148
G1 X151.641 Y106.251 E0.01141
G1 X151.392 Y105.980 E0.01141
G1 X151.167 Y105.687 E0.01141
G1 X150.968 Y105.374 E0.01148
G1 X150.726 Y104.883 E0.01695
G1 X150.598 Y104.532 E0.01156
G1 X150.469 Y104.004 E0.01683
G1 X150.419 Y103.632 E0.01160
G1 X150.403 Y103.264 E0.01141
G1 X150.419 Y102.895 E0.01141
G1 X150.468 Y102.527 E0.01148
G1 X150.597 Y101.999 E0.01683
G1 X150.725 Y101.647 E0.01160
G1 X150.882 Y101.310 E0.01148
G1 X151.164 Y100.845 E0.01683
G1 X151.392 Y100.548 E0.01160
G1 X151.641 Y100.276 E0.01141
G1 X151.913 Y100.027 E0.01141
G1 X152.205 Y99.803 E0.01141
G1 X152.518 Y99.603 E0.01148
G1 X153.009 Y99.361 E0.01695
G1 X153.358 Y99.234 E0.01148
G1 X153.714 Y99.139 E0.01141
G1 X154.079 Y99.074 E0.01148
G1 X154.622 Y99.038 E0.01683
G1 X154.997 Y99.054 E0.01160
G1 X155.365 Y99.103 E0.01148
G1 X155.893 Y99.232 E0.01683
G1 X156.248 Y99.361 E0.01168
G1 X156.736 Y99.601 E0.01683
G1 X157.052 Y99.802 E0.01160
G1 X157.344 Y100.027 E0.01141
G1 X157.616 Y100.276 E0.01141
G1 X157.867 Y100.549 E0.01148
G1 X158.189 Y100.988 E0.01683
G1 X158.376 Y101.313 E0.01160
G1 X158.532 Y101.647 E0.01141
G1 X158.658 Y101.993 E0.01141
G1 X158.754 Y102.351 E0.01148
G1 X158.837 Y102.893 E0.01695
G1 X158.854 Y103.264 E0.01148
G1 X158.837 Y103.634 E0.01148
G1 X158.754 Y104.176 E0.01695
G1 X158.658 Y104.534 E0.01148
G1 X158.532 Y104.881 E0.01141
G1 X158.376 Y105.215 E0.01141
G1 X158.191 Y105.536 E0.01148
G1 X157.869 Y105.975 E0.01683
G1 X157.616 Y106.251 E0.01160
G1 X157.389 Y106.460 E0.00955
M204 S3000
G1 X157.409 Y106.866 F9000.000
G1 E-0.80000 F1800.00000
G1 Z0.450 F9000.000
G1 X148.127 Y109.821
G1 Z0.200
G1 E0.80000 F1800.00000
M204 S200
G1 F2400
G1 X148.309 Y110.390 E0.01847
G1 X148.394 Y110.805 E0.01312
G1 X148.443 Y111.226 E0.01312
G1 X148.449 Y111.823 E0.01847
G1 X148.408 Y112.245 E0.01312
G1 X148.333 Y112.651 E0.01278
G1 X148.230 Y113.028 E0.01208
G1 X144.151 Y125.734 E0.41294
G1 X144.068 Y126.095 E0.01147
G1 X144.017 Y126.462 E0.01146
G1 X143.998 Y126.821 E0.01111
G1 X144.030 Y127.397 E0.01788
G1 X144.088 Y127.752 E0.01111
G1 X144.180 Y128.111 E0.01146
G1 X144.301 Y128.461 E0.01146
G1 X144.453 Y128.799 E0.01146
G1 X144.633 Y129.122 E0.01146
G1 X144.840 Y129.429 E0.01146
G1 X145.073 Y129.717 E0.01146
G1 X145.322 Y129.976 E0.01112
G1 X145.757 Y130.340 E0.01753
G1 X146.234 Y130.644 E0.01753
G1 X146.576 Y130.814 E0.01181
G1 X148.262 Y131.561 E0.05707
G1 X148.777 Y131.829 E0.01796
G1 X149.133 Y132.068 E0.01325
G1 X149.458 Y132.328 E0.01290
G1 X149.759 Y132.616 E0.01290
G1 X150.042 Y132.938 E0.01325
G1 X150.390 Y133.431 E0.01865
G1 X150.597 Y133.805 E0.01325
G1 X150.767 Y134.186 E0.01290
G1 X150.904 Y134.580 E0.01290
G1 X151.008 Y134.995 E0.01325
G1 X151.092 Y135.592 E0.01865
G1 X151.105 Y136.020 E0.01325
G1 X151.082 Y136.437 E0.01290
G1 X151.021 Y136.861 E0.01325
G1 X150.878 Y137.423 E0.01796
G1 X142.900 Y161.932 E0.79758
G1 X142.764 Y162.233 E0.01021
G1 X142.534 Y162.543 E0.01196
G1 X142.242 Y162.796 E0.01196
G1 X141.903 Y162.981 E0.01196
G1 X141.531 Y163.089 E0.01196
G1 X141.157 Y163.114 E0.01161
G1 X140.828 Y163.071 E0.01027
G1 X140.472 Y162.952 E0.01161
G1 X140.140 Y162.754 E0.01196
G1 X139.867 Y162.496 E0.01161
G1 X139.675 Y162.226 E0.01027
G1 X139.543 Y161.936 E0.00986
G1 X126.515 Y122.250 E1.29255
G1 X126.381 Y121.893 E0.01180
G1 X126.231 Y121.577 E0.01079
G1 X125.945 Y121.108 E0.01702
G1 X125.609 Y120.686 E0.01668
G1 X125.223 Y120.310 E0.01668
G1 X124.784 Y119.978 E0.01702
G1 X124.485 Y119.798 E0.01079
G1 X124.143 Y119.629 E0.01183
G1 X118.315 Y117.036 E0.19738
G1 X117.748 Y116.660 E0.02105
G1 X117.253 Y116.192 E0.02108
G1 X116.843 Y115.648 E0.02108
G1 X116.531 Y115.043 E0.02108
G1 X115.461 Y111.653 E0.10999
G1 X115.379 Y111.135 E0.01625
G1 X115.364 Y110.632 E0.01556
G1 X115.393 Y110.268 E0.01129
G1 X115.487 Y109.763 E0.01591
G1 X115.708 Y109.126 E0.02086
G1 X116.039 Y108.526 E0.02121
G1 X116.465 Y107.995 E0.02106
G1 X116.913 Y107.590 E0.01870
G1 X117.416 Y107.254 E0.01870
G1 X118.036 Y106.973 E0.02106
G1 X118.699 Y106.799 E0.02121
G1 X119.337 Y106.745 E0.01983
G1 X143.649 Y106.745 E0.75233
G1 X144.051 Y106.762 E0.01243
G1 X144.652 Y106.853 E0.01882
G1 X145.247 Y107.022 E0.01916
G1 X145.806 Y107.263 E0.01882
G1 X146.175 Y107.471 E0.01312
G1 X146.526 Y107.710 E0.01312
G1 X146.988 Y108.104 E0.01882
G1 X147.404 Y108.563 E0.01916
G1 X147.752 Y109.062 E0.01882
G1 X147.956 Y109.434 E0.01312
G1 X148.103 Y109.767 E0.01126
M204 S3000
G1 X147.746 Y109.966 F9000.000
M204 S200
G1 F2400
G1 X147.914 Y110.493 E0.01712
G1 X147.992 Y110.870 E0.01191
G1 X148.037 Y111.252 E0.01191
G1 X148.042 Y111.806 E0.01712
G1 X148.005 Y112.189 E0.01191
G1 X147.936 Y112.560 E0.01170
G1 X147.839 Y112.912 E0.01128
G1 X143.758 Y125.626 E0.41322
G1 X143.667 Y126.021 E0.01255
G1 X143.611 Y126.423 E0.01255
G1 X143.590 Y126.821 E0.01234
G1 X143.625 Y127.442 E0.01924
G1 X143.689 Y127.835 E0.01234
G1 X143.789 Y128.228 E0.01255
G1 X143.923 Y128.611 E0.01255
G1 X144.089 Y128.981 E0.01255
G1 X144.286 Y129.336 E0.01255
G1 X144.513 Y129.672 E0.01255
G1 X144.768 Y129.987 E0.01255
G1 X145.044 Y130.274 E0.01234
G1 X145.515 Y130.669 E0.01902
G1 X146.034 Y130.999 E0.01902
G1 X146.403 Y131.182 E0.01276
G1 X148.086 Y131.927 E0.05693
G1 X148.569 Y132.180 E0.01687
G1 X148.892 Y132.396 E0.01203
G1 X149.189 Y132.635 E0.01181
G1 X149.466 Y132.899 E0.01181
G1 X149.722 Y133.190 E0.01203
G1 X150.044 Y133.647 E0.01729
G1 X150.233 Y133.987 E0.01203
G1 X150.388 Y134.336 E0.01181
G1 X150.513 Y134.696 E0.01181
G1 X150.608 Y135.073 E0.01203
G1 X150.685 Y135.627 E0.01729
G1 X150.697 Y136.015 E0.01203
G1 X150.676 Y136.396 E0.01181
G1 X150.621 Y136.781 E0.01203
G1 X150.486 Y137.309 E0.01687
G1 X142.520 Y161.785 E0.79649
G1 X142.411 Y162.025 E0.00816
G1 X142.233 Y162.265 E0.00923
G1 X142.008 Y162.460 E0.00923
G1 X141.747 Y162.603 E0.00923
G1 X141.460 Y162.686 E0.00923
G1 X141.170 Y162.705 E0.00901
G1 X140.919 Y162.673 E0.00781
G1 X140.643 Y162.580 E0.00901
G1 X140.388 Y162.427 E0.00923
G1 X140.176 Y162.227 E0.00901
G1 X140.029 Y162.022 E0.00781
G1 X139.923 Y161.788 E0.00795
G1 X126.899 Y122.115 E1.29214
G1 X126.756 Y121.734 E0.01259
G1 X126.590 Y121.384 E0.01198
G1 X126.279 Y120.874 E0.01847
G1 X125.911 Y120.412 E0.01827
G1 X125.489 Y120.000 E0.01827
G1 X125.012 Y119.641 E0.01847
G1 X124.681 Y119.441 E0.01198
G1 X124.315 Y119.260 E0.01261
G1 X118.512 Y116.678 E0.19657
G1 X118.002 Y116.340 E0.01892
G1 X117.557 Y115.920 E0.01894
G1 X117.189 Y115.431 E0.01894
G1 X116.909 Y114.887 E0.01894
G1 X115.858 Y111.560 E0.10797
G1 X115.785 Y111.097 E0.01450
G1 X115.772 Y110.642 E0.01408
G1 X115.797 Y110.321 E0.00995
G1 X115.882 Y109.867 E0.01429
G1 X116.081 Y109.292 E0.01884
G1 X116.379 Y108.753 E0.01905
G1 X116.762 Y108.275 E0.01896
G1 X117.164 Y107.912 E0.01676
G1 X117.614 Y107.611 E0.01676
G1 X118.172 Y107.358 E0.01896
G1 X118.768 Y107.202 E0.01905
G1 X119.354 Y107.152 E0.01821
G1 X143.641 Y107.152 E0.75152
G1 X144.011 Y107.168 E0.01149
G1 X144.565 Y107.251 E0.01733
G1 X145.110 Y107.407 E0.01754
G1 X145.625 Y107.628 E0.01733
G1 X145.960 Y107.817 E0.01191
G1 X146.278 Y108.034 E0.01191
G1 X146.704 Y108.397 E0.01733
G1 X147.085 Y108.817 E0.01754
G1 X147.406 Y109.277 E0.01733
G1 X147.591 Y109.614 E0.01191
G1 X147.722 Y109.911 E0.01005
M204 S3000
G1 E-0.80000 F1800.00000
G1 Z0.450 F9000.000
G1 X140.383 Y161.818
G1 Z0.200
G1 E0.80000 F1800.00000
M204 S200
G1 F2400
G1 X140.303 Y161.640 E0.00603
G1 X127.283 Y121.980 E1.29172
G1 X127.131 Y121.575 E0.01338
G1 X126.949 Y121.190 E0.01317
G1 X126.614 Y120.640 E0.01992
G1 X126.214 Y120.139 E0.01985
G1 X125.755 Y119.691 E0.01985
G1 X125.241 Y119.303 E0.01992
G1 X124.876 Y119.083 E0.01317
G1 X124.488 Y118.892 E0.01339
G1 X118.708 Y116.320 E0.19576
G1 X118.256 Y116.020 E0.01679
G1 X117.862 Y115.648 E0.01680
G1 X117.535 Y115.214 E0.01680
G1 X117.287 Y114.731 E0.01680
G1 X116.255 Y111.466 E0.10596
G1 X116.191 Y111.059 E0.01275
G1 X116.179 Y110.652 E0.01260
G1 X116.201 Y110.375 E0.00860
G1 X116.276 Y109.972 E0.01268
G1 X116.454 Y109.458 E0.01682
G1 X116.718 Y108.980 E0.01690
G1 X117.059 Y108.555 E0.01687
G1 X117.414 Y108.234 E0.01482
G1 X117.813 Y107.968 E0.01482
G1 X118.309 Y107.743 E0.01687
G1 X118.837 Y107.605 E0.01690
G1 X119.372 Y107.559 E0.01660
G1 X143.632 Y107.559 E0.75072
G1 X143.972 Y107.573 E0.01055
G1 X144.479 Y107.650 E0.01585
G1 X144.974 Y107.791 E0.01592
G1 X145.444 Y107.993 E0.01585
G1 X145.745 Y108.163 E0.01069
G1 X146.031 Y108.358 E0.01069
G1 X146.421 Y108.690 E0.01585
G1 X146.766 Y109.071 E0.01592
G1 X147.059 Y109.491 E0.01585
G1 X147.225 Y109.794 E0.01069
G1 X147.365 Y110.111 E0.01069
G1 X147.520 Y110.596 E0.01577
G1 X147.589 Y110.935 E0.01069
G1 X147.630 Y111.278 E0.01069
G1 X147.635 Y111.788 E0.01577
G1 X147.601 Y112.132 E0.01069
G1 X147.539 Y112.469 E0.01062
G1 X147.449 Y112.795 E0.01047
G1 X143.365 Y125.518 E0.41349
G1 X143.267 Y125.948 E0.01364
